X:336
T:Miss Joan C. MacKenzie 
C:Joe Buchanan's Scottish Tome - Page 118.0
I:118 0
C:Alisdair Donnie
R:March
Z:Carl Allison
L:1/8
M:6/8
K:D
f | "D"A>AA (d2 e) | {fg}f3 d3 | {f}"A7"e3 e>de | "D"f>ed  ("G"B2d) |
"D"A>AA (d2 e) | {fg}f3 d3 | {e}"A7"e>de A>fe |  {c}"D"d3 d2 :|
g | "D"f>ef A>AA | f>gf f>ed | "A7"e>de "D"f>Af | "G"e>dB {Bc}(B2 A) |
"D"fe/f A>AA | f>gf f>ed | "A7"e>de A>fe | {c}"D"d3 (d2 g) |
"D"fe/f A>AA | f>gf f>ed | "A7"e>de "D"f>Af | "G"e>dB {Bc}(B2 d) |
{Bd}"D"A3 d3 | "G"B>AG AB>d | "A7"e>de A>fe | {c}"D"d3 d2 |]
f | "D"A>AA ("G"G2 A) | "D"B>AA f>ed | "A7"e>de "D"f>ef | "G"e>dB  {Bd}(B2 d) |
"D"A>AA ("G"G2 A) | "D"B>AA f>ed | "A7"e>de A>fe | {c}"D"d3 d2 :|
g | ("D"f>ad) f>dd | "G"B>GG "D"A>dd | "A"d>ff f>ee | "G"e>dB {Bd}(B2 g) |
("D"f>ad) f>dd | "G"B>GG "D"A>dd | "A7"e>de A>fe | {c}"D"d3 (d2 g) |
("D"f<ad) f>dd | "G"B>GG "D"A>dd | "A"d>ff f>ee | "G"e>dB {Bd}(B2 A) |
"D"A>AA f>ed | "G"B>GB "D"A>Bd | "A7"e>de A>fe |  {c}"D"d3 d2 |]

